X:1
T:Title
%%score { ( 1 3 ) | ( 2 4 ) }
L:1/8
Q:1/4=100
M:4/4
K:Eb
V:1 treble nm="Grand Piano"
V:3 treble 
V:2 bass 
V:4 bass 
V:1
 G3 F E2 G2 | [GB]2 [Ac]2 [GB]4 | [Ge]3 [Ac] [GB]2 [EG]2 | [DF]6 z2 | G3 F E2 G2 | %5
w: John~R.~Sweney * * *|||||
 [GB]2 [Ac]2 [GB]4 | d3 d d2 c2 | B4- [AB]4 | [EGB]2 [Ge]2 [Bd]2 [Ac]2 | [Ac]3 [GB] [GB]4 | %10
w: |||||
 A2 c2 B2 G2 | [EG]3 [DF] [DF]4 | [EG]3 [FA] [GB]2 [EG]2 | [_Ge]3 [Gc] [B,=GB]4 | %14
w: ||||
 [G,E]3 [B,EG] [B,EG]2 [A,DF]2 | [G,B,E]6 z2 |] %16
w: ||
V:2
 [E,B,E]3 [E,A,E] [E,G,]2 [E,B,E]2 | [E,E]2 [E,E]2 [E,E]4 | [E,B,]3 [E,E] [E,E]2 [E,B,]2 | %3
 [B,,B,]6 z2 | [E,B,E]3 [E,A,E] [E,G,]2 [E,B,E]2 | [E,E]2 [E,E]2 [E,E]4 | %6
 [F,B,F]3 [F,B,F] [F,B,F]2 [F,=A,E]2 | z4 D4 | E,2 [E,B,]2 [E,B,]2 [E,E]2 | [E,E]3 [E,E] [E,E]4 | %10
 [A,CE]2 [A,E]2 [G,B,E]2 [E,B,E]2 | [B,,B,]3 [B,,B,] [B,,B,]4 | [E,B,]3 [E,B,] [E,E]2 [E,B,]2 | %13
 [E,=A,]3 [E,A,] E,4 | B,,3 B,, B,,2 B,,2 | E,6 z2 |] %16
V:3
 x8 | x8 | x8 | x8 | x8 | x8 | x8 | [B,D]4 z4 | x8 | x8 | x8 | x8 | x8 | x8 | x8 | x8 |] %16
V:4
 x8 | x8 | x8 | x8 | x8 | x8 | x8 | B,,8 | x8 | x8 | x8 | x8 | x8 | x8 | x8 | x8 |] %16

